include/LD/assets/icons/standard/product.svg

<?xml version="1.0"?><svg xmlns="http://www.w3.org/2000/svg" width="100" height="100" viewBox="0 0 100 100"><path fill="#fff" d="m22 66h5c1.1 0 2-0.9 2-2v-31c0-1.1-0.9-2-2-2h-5c-1.1 0-2 0.9-2 2v31c0 1.1 0.9 2 2 2z m56-35h-5c-1.1 0-2 0.9-2 2v31c0 1.1 0.9 2 2 2h5c1.1 0 2-0.9 2-2v-31c0-1.1-0.9-2-2-2z m-25 35c1.1 0 2-0.9 2-2v-31c0-1.1-0.9-2-2-2h-6c-1.1 0-2 0.9-2 2v31c0 1.1 0.9 2 2 2h6z m12 0c1.1 0 2-0.9 2-2v-31c0-1.1-0.9-2-2-2h-2c-1.1 0-2 0.9-2 2v31c0 1.1 0.9 2 2 2h2z m-26 0c1.1 0 2-0.9 2-2v-31c0-1.1-0.9-2-2-2h-2c-1.1 0-2 0.9-2 2v31c0 1.1 0.9 2 2 2h2z m39 6h-56c-1.1 0-2 0.9-2 2v2c0 1.1 0.9 2 2 2h56c1.1 0 2-0.9 2-2v-2c0-1.1-0.9-2-2-2z m0-52h-56c-1.1 0-2 0.9-2 2v2c0 1.1 0.9 2 2 2h56c1.1 0 2-0.9 2-2v-2c0-1.1-0.9-2-2-2z"></path></svg>

<svg xmlns="http://www.w3.org/2000/svg" x="0px" y="0px" width="100" height="100"
	 viewBox="0 0 100 100" style="enable-background:new 0 0 100 100;" xml:space="preserve">

<g>
	<g>
		<path fill="#FFFFFF" d="M22,66h5c1.1,0,2-0.9,2-2V33c0-1.1-0.9-2-2-2h-5c-1.1,0-2,0.9-2,2v31C20,65.1,20.9,66,22,66z"/>
	</g>
	<g>
		<path fill="#FFFFFF" d="M78,31h-5c-1.1,0-2,0.9-2,2v31c0,1.1,0.9,2,2,2h5c1.1,0,2-0.9,2-2V33C80,31.9,79.1,31,78,31z"/>
	</g>
	<g>
		<path fill="#FFFFFF" d="M53,66c1.1,0,2-0.9,2-2V33c0-1.1-0.9-2-2-2h-6c-1.1,0-2,0.9-2,2v31c0,1.1,0.9,2,2,2H53z"/>
	</g>
	<g>
		<path fill="#FFFFFF" d="M65,66c1.1,0,2-0.9,2-2V33c0-1.1-0.9-2-2-2h-2c-1.1,0-2,0.9-2,2v31c0,1.1,0.9,2,2,2H65z"/>
	</g>
	<g>
		<path fill="#FFFFFF" d="M39,66c1.1,0,2-0.9,2-2V33c0-1.1-0.9-2-2-2h-2c-1.1,0-2,0.9-2,2v31c0,1.1,0.9,2,2,2H39z"/>
	</g>
	<g>
		<path fill="#FFFFFF" d="M78,72H22c-1.1,0-2,0.9-2,2v2c0,1.1,0.9,2,2,2h56c1.1,0,2-0.9,2-2v-2C80,72.9,79.1,72,78,72z"/>
	</g>
	<g>
		<path fill="#FFFFFF" d="M78,20H22c-1.1,0-2,0.9-2,2v2c0,1.1,0.9,2,2,2h56c1.1,0,2-0.9,2-2v-2C80,20.9,79.1,20,78,20z"/>
	</g>
</g>
</svg>
